imgs/logo_language/jquery-svgrepo-com.svg

<?xml version="1.0" encoding="utf-8"?><!-- Uploaded to: SVG Repo, www.svgrepo.com, Generator: SVG Repo Mixer Tools -->
<svg width="800px" height="800px" viewBox="0 0 32 32" fill="none" xmlns="http://www.w3.org/2000/svg">
<circle cx="16" cy="16" r="14" fill="#0769AD"/>
<path d="M22.6573 13.4211C23.9143 13.4211 25.0652 13.0019 25.955 12.3066C25.0312 13.5238 23.5007 14.3196 21.7689 14.3196C18.9477 14.3196 16.6607 12.2077 16.6607 9.60256C16.6607 8.1581 17.3638 6.86527 18.4712 6C17.8901 6.76568 17.5491 7.6981 17.5491 8.70407C17.5491 11.3092 19.8361 13.4211 22.6573 13.4211Z" fill="#78CFF5"/>
<path d="M25.9064 16.6586C24.5512 17.7216 22.7968 18.3628 20.8805 18.3628C16.5874 18.3628 13.1071 15.1447 13.1071 11.1749C13.1071 9.63522 13.6307 8.20859 14.5221 7.03894C12.8413 8.35742 11.7745 10.3248 11.7745 12.5226C11.7745 16.4924 15.2548 19.7106 19.5479 19.7106C22.176 19.7106 24.4994 18.5047 25.9064 16.6586Z" fill="#78CFF5"/>
<path d="M26 20.7701C24.0689 22.6129 21.3937 23.7538 18.4375 23.7538C12.5497 23.7538 7.77678 19.2283 7.77678 13.6458C7.77678 11.8768 8.25603 10.214 9.09813 8.76767C7.18322 10.595 6 13.1125 6 15.892C6 21.4745 10.7729 26 16.6607 26C20.6827 26 24.1846 23.8881 26 20.7701Z" fill="#78CFF5"/>
</svg>

<svg xmlns="http://www.w3.org/2000/svg" width="800" height="800" fill="none" viewBox="0 0 32 32"><circle cx="16" cy="16" r="14" fill="#0769AD"/><path fill="#78CFF5" d="M22.657 13.421c1.257 0 2.408-.42 3.298-1.114-.924 1.217-2.454 2.013-4.186 2.013-2.821 0-5.108-2.112-5.108-4.717 0-1.445.703-2.738 1.81-3.603a4.45 4.45 0 0 0-.922 2.704c0 2.605 2.287 4.717 5.108 4.717"/><path fill="#78CFF5" d="M25.906 16.659c-1.355 1.063-3.11 1.704-5.025 1.704-4.294 0-7.774-3.218-7.774-7.188 0-1.54.524-2.966 1.415-4.136-1.68 1.318-2.748 3.286-2.748 5.484 0 3.97 3.48 7.188 7.774 7.188 2.628 0 4.951-1.206 6.358-3.052"/><path fill="#78CFF5" d="M26 20.77c-1.931 1.843-4.606 2.984-7.562 2.984-5.888 0-10.661-4.526-10.661-10.108 0-1.77.479-3.432 1.321-4.878C7.183 10.595 6 13.113 6 15.892 6 21.475 10.773 26 16.66 26c4.023 0 7.525-2.112 9.34-5.23"/></svg>
